X:089 
T:John Slattery's Reel 
B:CRE5.198 (Ril SheÃÂÃÂÃÂÃÂ¡in UÃÂÃÂÃÂÃÂ­ Shlatara)
F:file ID: cre.5/089john_s
M:4/4
Q:180
R:reel
K:G
"A dorisn"
e2ef e2dB|G2BG dBGB|e2ed e2ge|dcBG ABcd|
e2de e2dB|GABd dBGB|c3A BAGA|B2AG EGAB||
c2gc acgc|c2ag gedB|c2gc aceg|eaag aedB|
c2gc acgc|c2ag gedB|c2cA (3Bcd ef|g2ag gedB||
"last time" A8||

%%%

